X:1308
T:Polska
S:Efter Bengt Jonsson
Z:[[http://www.bluerose.karenlmyers.org/IncipitsPolskaAlvdalen1.html|Karen Myers (#1045)]]
M:3/4
L:1/8
R:Polska
O:Älvdalen, Dalarna
K:D
(c |: A>)(c A2) c>d | (e<f) (gf) e>c | (A<c) A2 c>d | (e<f) d2- d(c :|
|: d>)e f>e f>g | a>(b a<^g) a2- | af- fd e>(f |
(3g)(eg) (3f(df) e>c | (A<c) e2 c>d |1 (e<f) d2- d(c :|2 (e<f) d3 |]
(:musicend:)

(:music:)
